X: 21118
T: Karen Tweed's Inspiration
R: jig
M: 6/8
K: Cmajor
EFG cde|d_BF cGE|cGE FDF|dc=B cGE|
EFG cde|d_BF cGE|cGE FDF|dc=B c3:|
c2e d_Bc|AFc GEC|c2e d_Bc|AFA dcB|
c2e d_Bc|AFc GEC|_BAB dc=B|cGF EDC:|

